X:1
T:Rambling Rose
T:Rambling Rose
T:Joe Burke
T:Joseph McCarthy Jr.
C:Joe Burke
Z:All Rights Reserved
L:1/8
M:2/2
K:G
V:1 treble 
%%MIDI program 40
%%MIDI control 7 100
%%MIDI control 10 64
V:1
"G" B>^ABD- D2 G>=A | B>^ABD-"E7" D2 E>D |"A7" ^C2 A2"Em7" A F2 E- |"A7" E8 |"D7" A>^GAD- D2 F>=G | %5
w: Ev- 'ry one knows * She's a|RAM- BL- ING ROSE * She's a|beau- ty grow- ing wild||Birds in their nest * Seem to|
 A>^GAD- D>^C"D+7"D>^D |"G" E2 G2"C9" G E2 G- |"G""Am7""G""G+" G8 |"C" E2 E>^D E>GBd- | %9
w: whis- tle their best * For moth- er|na- tures fav- 'rite child||She's got the kind of af- fec-|
"Am7" d c3"D7" ^G2 A2 |"Am6" c2 B2"B7" F2 B2 |"Em" G8 |"A7" ^C2 C>=C ^C>EGB- | %13
w: * tion That just|winds a- round your|heart|You'd bet- ter run for pro- tec-|
"Em7" B A3"A7" ^D2 E2 |"D7" F2 F2"Am7" G2 G2 |"Ddim" ^G B2 A-"D9" A3 D |"G" B>^ABD- D2"D7" G>=A | %17
w: * tion Or she|might up- set your|flow- er cart * I|hate to dis- close * That my|
"G" B>^ABD-"E7" D>DE>D |"A7" ^C2 A2"Em7" A F2 E- |"A7" E8 |"D7" A>^GAD- D2 F>=G | %21
w: ram- bl- ing rose * is gon- na|meet her Wa- ter- loo||I'll let her play * But she|
 A>^GAD- D2"D+7" D>^D |"G" E2 G2"C9" G E2 G- |"G""Am7""G""G+7" G8 |"C" E>^DEE- E>GBd- | %25
w: can't get a- way * 'Cause I|know just what to do||An- y- one knows * you can train|
"Am7" d2 c2"D7" ^G2 A2 |"Cm" c2"G" B2"Em7" A2 G2 |"Dbdim""D7" F6 E>D |"G" B2 BD- D>DE>G | %29
w: * a rose to|be a cling- ing|vine So from|this day hence * There'll be a|
"Dm" B d2 c-"E+7" c4 |"A9" B2 G2 B2"A9b5" G2 |"D7" B2 BG-"G" G2 z2 |] %32
w: pick- et fence *|'Round that RAM- BLING|ROSE of mine- *|

